X: 9620
T: Dawn, The
R: reel
M: 4/4
K: Amajor
A,2CE D2FA|E2CE ABcA|BEcE dEcE|BdcB AFEC|
A,2CE D2FD|E2CE ABce|fdge afec|1 BdcB AFEC:|2 ecBe cAA2||
a3e fece|fbba gee2|(3gfe be gbeg|fe^df e2 ef|
a3e fece|fgag fece|fdge afec|ecBe cAA2|
a3e fece|fbba gee2|(3gfe be gbeg|ac'ea c'eac'|
a3e fece|fgag fece|fdge afec|ecBe cAA2||

